contributed-vectors/ameixa_monochrome.svg

<svg xmlns="http://www.w3.org/2000/svg" width="192" height="192"><rect width="153" height="153" x="19.5" y="19.5" rx="10" style="opacity:1;fill:#56595b"/><path d="M60 60v4h73v-4H60zm45.5 10c-4.5 0-4.5 5-4.5 5v19s0 5-4.5 5-4.5-5-4.5-5V80s0-5-4.5-5-4.5 5-4.5 5v28s0 5-4.5 5-4.5-5-4.5-5V81s0-5-4.5-5-4.5 5-4.5 5v8c0 5-5 5-5 5v29c0 4 0 9 9 9h54c9 0 9-5 9-9V90s-4 0-4-5V75s0-5-4.5-5-4.5 5-4.5 5v9s0 5-4.5 5-4.5-5-4.5-5v-9s0-5-4.5-5z" style="opacity:1;vector-effect:none;fill:#fff;fill-opacity:1;paint-order:stroke fill markers"/></svg>

<?xml version="1.0" encoding="UTF-8" standalone="no"?>
<svg
   xmlns:dc="http://purl.org/dc/elements/1.1/"
   xmlns:cc="http://creativecommons.org/ns#"
   xmlns:rdf="http://www.w3.org/1999/02/22-rdf-syntax-ns#"
   xmlns:svg="http://www.w3.org/2000/svg"
   xmlns="http://www.w3.org/2000/svg"
   xmlns:sodipodi="http://sodipodi.sourceforge.net/DTD/sodipodi-0.dtd"
   xmlns:inkscape="http://www.inkscape.org/namespaces/inkscape"
   width="192"
   height="192"
   version="1.1"
   viewBox="0 0 192 192"
   id="svg14"
   sodipodi:docname="ameixa_monochrome.svg"
   inkscape:version="0.92.5 (2060ec1f9f, 2020-04-08)">
  <metadata
     id="metadata20">
    <rdf:RDF>
      <cc:Work
         rdf:about="">
        <dc:format>image/svg+xml</dc:format>
        <dc:type
           rdf:resource="http://purl.org/dc/dcmitype/StillImage" />
        <dc:title></dc:title>
      </cc:Work>
    </rdf:RDF>
  </metadata>
  <defs
     id="defs18" />
  <sodipodi:namedview
     pagecolor="#ffffff"
     bordercolor="#666666"
     borderopacity="1"
     objecttolerance="10"
     gridtolerance="10"
     guidetolerance="10"
     inkscape:pageopacity="0"
     inkscape:pageshadow="2"
     inkscape:window-width="1280"
     inkscape:window-height="745"
     id="namedview16"
     showgrid="true"
     inkscape:zoom="2.4583333"
     inkscape:cx="118.9145"
     inkscape:cy="94.025974"
     inkscape:window-x="-12"
     inkscape:window-y="-2"
     inkscape:window-maximized="1"
     inkscape:current-layer="svg14">
    <inkscape:grid
       type="xygrid"
       id="grid838" />
  </sodipodi:namedview>
  <rect
     style="opacity:1;fill:#56595b"
     id="rect2"
     rx="10"
     height="153"
     width="153"
     y="19.5"
     x="19.5" />
  <path
     style="opacity:1;vector-effect:none;fill:#ffffff;fill-opacity:1;paint-order:stroke fill markers"
     d="M 60 60 L 60 64 L 133 64 L 133 60 L 60 60 z M 105.5 70 C 101 70 101 75 101 75 L 101 94 C 101 94 101 99 96.5 99 C 92 99 92 94 92 94 L 92 80 C 92 80 92 75 87.5 75 C 83 75 83 80 83 80 L 83 108 C 83 108 83 113 78.5 113 C 74 113 74 108 74 108 L 74 81 C 74 81 74 76 69.5 76 C 65 76 65 81 65 81 L 65 89 C 65 94 60 94 60 94 L 60 123 C 60 127 60 132 69 132 L 123 132 C 132 132 132 127 132 123 L 132 90 C 132 90 128 90 128 85 L 128 75 C 128 75 128 70 123.5 70 C 119 70 119 75 119 75 L 119 84 C 119 84 119 89 114.5 89 C 110 89 110 84 110 84 L 110 75 C 110 75 110 70 105.5 70 z "
     id="rect840" />
</svg>
